cssgg/indie-hackers.svg

<svg viewBox="0 0 24 24" xmlns="http://www.w3.org/2000/svg"><g><path d="M4 6h3v12H4V6Z"/><path d="M10 6h3v4.5h4V6h3v12h-3v-4.5h-4V18h-3V6Z"/></g></svg>

<svg
  width="24"
  height="24"
  viewBox="0 0 24 24"
  fill="none"
  xmlns="http://www.w3.org/2000/svg"
>
  <path d="M4 6H7V18H4V6Z" fill="currentColor" />
  <path d="M10 6H13V10.5H17V6H20V18H17V13.5H13V18H10V6Z" fill="currentColor" />
</svg>
